images/logo.svg

<?xml version="1.0" encoding="UTF-8"?>
<svg width="474px" height="74px" viewBox="0 0 474 74" version="1.1" xmlns="http://www.w3.org/2000/svg" xmlns:xlink="http://www.w3.org/1999/xlink">
    <!-- Generator: Sketch 51.2 (57519) - http://www.bohemiancoding.com/sketch -->
    <title>logo</title>
    <desc>Created with Sketch.</desc>
    <defs></defs>
    <g id="logo" stroke="none" stroke-width="1" fill="none" fill-rule="evenodd">
        <g>
            <rect id="white-bg" fill="#ECECEC" x="335.926554" y="2.74074074" width="130.316384" height="68.5185185"></rect>
            <rect id="black-rectangle" fill="#212121" x="0" y="0" width="341.429379" height="74"></rect>
            <path d="M354.715616,18.6 L365.467616,18.6 C368.230296,18.6 370.759604,18.9359966 373.055616,19.608 C375.351627,20.2800034 377.320941,21.3439927 378.963616,22.8 C380.606291,24.2560073 381.884945,26.1226553 382.799616,28.4 C383.714287,30.6773447 384.171616,33.4213173 384.171616,36.632 C384.171616,39.8426827 383.72362,42.6053218 382.827616,44.92 C381.931611,47.2346782 380.671624,49.1386592 379.047616,50.632 C377.423608,52.1253408 375.50096,53.2266631 373.279616,53.936 C371.058271,54.6453369 368.640962,55 366.027616,55 L354.715616,55 L354.715616,18.6 Z M364.907616,47.272 C366.214289,47.272 367.446277,47.1133349 368.603616,46.796 C369.760955,46.4786651 370.759612,45.9280039 371.599616,45.144 C372.43962,44.3599961 373.10228,43.2773402 373.587616,41.896 C374.072952,40.5146598 374.315616,38.7600106 374.315616,36.632 C374.315616,34.5039894 374.072952,32.7680067 373.587616,31.424 C373.10228,30.0799933 372.43962,29.0346704 371.599616,28.288 C370.759612,27.5413296 369.760955,27.0280014 368.603616,26.748 C367.446277,26.4679986 366.214289,26.328 364.907616,26.328 L364.347616,26.328 L364.347616,47.272 L364.907616,47.272 Z M390.667616,18.6 L414.187616,18.6 L414.187616,26.664 L400.299616,26.664 L400.299616,32.376 L412.171616,32.376 L412.171616,40.44 L400.299616,40.44 L400.299616,46.936 L414.747616,46.936 L414.747616,55 L390.667616,55 L390.667616,18.6 Z M417.211616,18.6 L427.403616,18.6 L431.211616,34.504 C431.734285,36.445343 432.182281,38.3586572 432.555616,40.244 C432.928951,42.1293428 433.376947,44.0613234 433.899616,46.04 L434.123616,46.04 C434.646285,44.0613234 435.103614,42.1293428 435.495616,40.244 C435.887618,38.3586572 436.32628,36.445343 436.811616,34.504 L440.507616,18.6 L450.363616,18.6 L439.611616,55 L427.963616,55 L417.211616,18.6 Z" id="DEV" fill="#212121"></path>
            <path d="M24.032,18.6 L38.144,18.6 C40.085343,18.6 41.9426578,18.795998 43.716,19.188 C45.4893422,19.580002 47.03866,20.2519952 48.364,21.204 C49.68934,22.1560048 50.7439961,23.4066589 51.528,24.956 C52.3120039,26.5053411 52.704,28.4186553 52.704,30.696 C52.704,32.9360112 52.3026707,34.8586586 51.5,36.464 C50.6973293,38.0693414 49.6240067,39.3853282 48.28,40.412 C46.9359933,41.4386718 45.3866754,42.2039975 43.632,42.708 C41.8773246,43.2120025 40.0480095,43.464 38.144,43.464 L33.664,43.464 L33.664,55 L24.032,55 L24.032,18.6 Z M37.696,35.848 C39.6000095,35.848 41.0093288,35.4000045 41.924,34.504 C42.8386712,33.6079955 43.296,32.3386749 43.296,30.696 C43.296,29.0533251 42.8106715,27.8960034 41.84,27.224 C40.8693285,26.5519966 39.488009,26.216 37.696,26.216 L33.664,26.216 L33.664,35.848 L37.696,35.848 Z M58.416,18.6 L68.048,18.6 L68.048,38.536 C68.048,41.7840162 68.4866623,44.07066 69.364,45.396 C70.2413377,46.72134 71.6319905,47.384 73.536,47.384 C75.4400095,47.384 76.8493288,46.72134 77.764,45.396 C78.6786712,44.07066 79.136,41.7840162 79.136,38.536 L79.136,18.6 L88.432,18.6 L88.432,37.416 C88.432,43.6506978 87.2186788,48.2519852 84.792,51.22 C82.3653212,54.1880148 78.6133587,55.672 73.536,55.672 C68.4213078,55.672 64.6226791,54.1880148 62.14,51.22 C59.6573209,48.2519852 58.416,43.6506978 58.416,37.416 L58.416,18.6 Z M96.272,18.6 L106.128,18.6 L114.192,34.84 L117.664,43.016 L117.888,43.016 C117.775999,42.0453285 117.645334,40.9813391 117.496,39.824 C117.346666,38.6666609 117.216001,37.4813394 117.104,36.268 C116.991999,35.0546606 116.889334,33.8413394 116.796,32.628 C116.702666,31.4146606 116.656,30.2480056 116.656,29.128 L116.656,18.6 L125.84,18.6 L125.84,55 L115.984,55 L107.92,38.704 L104.448,30.584 L104.224,30.584 C104.448001,32.6746771 104.709332,34.9519877 105.008,37.416 C105.306668,39.8800123 105.456,42.2319888 105.456,44.472 L105.456,55 L96.272,55 L96.272,18.6 Z M133.904,18.6 L143.536,18.6 L143.536,32.152 L143.76,32.152 L152.944,18.6 L163.472,18.6 L152.608,33.384 L165.6,55 L155.072,55 L147.008,41 L143.536,45.928 L143.536,55 L133.904,55 L133.904,18.6 Z M190.464,35.176 L193.936,35.176 C197.818686,35.176 199.76,33.5706827 199.76,30.36 C199.76,28.7919922 199.265338,27.7093363 198.276,27.112 C197.286662,26.5146637 195.84001,26.216 193.936,26.216 L190.464,26.216 L190.464,35.176 Z M200.432,55 L194.16,42.792 L190.464,42.792 L190.464,55 L180.832,55 L180.832,18.6 L194.608,18.6 C196.549343,18.6 198.406658,18.7866648 200.18,19.16 C201.953342,19.5333352 203.50266,20.1679955 204.828,21.064 C206.15334,21.9600045 207.207996,23.1639924 207.992,24.676 C208.776004,26.1880076 209.168,28.0826553 209.168,30.36 C209.168,32.9733464 208.636005,35.1386581 207.572,36.856 C206.507995,38.5733419 205.080009,39.9173285 203.288,40.888 L211.184,55 L200.432,55 Z M231.456,55.672 C228.917321,55.672 226.61201,55.242671 224.54,54.384 C222.46799,53.525329 220.694674,52.2840081 219.22,50.66 C217.745326,49.0359919 216.597337,47.0386785 215.776,44.668 C214.954663,42.2973215 214.544,39.6186816 214.544,36.632 C214.544,33.6453184 214.954663,30.985345 215.776,28.652 C216.597337,26.318655 217.745326,24.3586746 219.22,22.772 C220.694674,21.1853254 222.46799,19.9813374 224.54,19.16 C226.61201,18.3386626 228.917321,17.928 231.456,17.928 C233.957346,17.928 236.253323,18.3386626 238.344,19.16 C240.434677,19.9813374 242.217326,21.1946586 243.692,22.8 C245.166674,24.4053414 246.314663,26.3653218 247.136,28.68 C247.957337,30.9946782 248.368,33.6453184 248.368,36.632 C248.368,39.6186816 247.957337,42.2973215 247.136,44.668 C246.314663,47.0386785 245.166674,49.0359919 243.692,50.66 C242.217326,52.2840081 240.434677,53.525329 238.344,54.384 C236.253323,55.242671 233.957346,55.672 231.456,55.672 L231.456,55.672 Z M231.456,47.384 C233.658678,47.384 235.385327,46.4226763 236.636,44.5 C237.886673,42.5773237 238.512,39.9546833 238.512,36.632 C238.512,33.3093167 237.886673,30.7426757 236.636,28.932 C235.385327,27.1213243 233.658678,26.216 231.456,26.216 C229.253322,26.216 227.526673,27.1213243 226.276,28.932 C225.025327,30.7426757 224.4,33.3093167 224.4,36.632 C224.4,39.9546833 225.025327,42.5773237 226.276,44.5 C227.526673,46.4226763 229.253322,47.384 231.456,47.384 L231.456,47.384 Z M253.296,37.08 C253.296,34.0186514 253.781328,31.3026785 254.752,28.932 C255.722672,26.5613215 257.029325,24.5640081 258.672,22.94 C260.314675,21.3159919 262.209323,20.074671 264.356,19.216 C266.502677,18.357329 268.751988,17.928 271.104,17.928 C273.418678,17.928 275.518657,18.4039952 277.404,19.356 C279.289343,20.3080048 280.885327,21.4373268 282.192,22.744 L276.928,28.68 C276.031996,27.8959961 275.154671,27.2893355 274.296,26.86 C273.437329,26.4306645 272.410673,26.216 271.216,26.216 C270.133328,26.216 269.097338,26.4586642 268.108,26.944 C267.118662,27.4293358 266.260004,28.1199955 265.532,29.016 C264.803996,29.9120045 264.225335,31.0133268 263.796,32.32 C263.366665,33.6266732 263.152,35.1013251 263.152,36.744 C263.152,40.1786838 263.870659,42.8106575 265.308,44.64 C266.745341,46.4693425 268.639988,47.384 270.992,47.384 C272.410674,47.384 273.633328,47.113336 274.66,46.572 C275.686672,46.030664 276.591996,45.330671 277.376,44.472 L282.64,50.296 C281.071992,52.088009 279.28001,53.4319955 277.264,54.328 C275.24799,55.2240045 273.120011,55.672 270.88,55.672 C268.490655,55.672 266.232011,55.2893372 264.104,54.524 C261.975989,53.7586628 260.109341,52.6013411 258.504,51.052 C256.898659,49.5026589 255.629338,47.561345 254.696,45.228 C253.762662,42.894655 253.296,40.1786822 253.296,37.08 L253.296,37.08 Z M287.68,18.6 L297.312,18.6 L297.312,32.152 L297.536,32.152 L306.72,18.6 L317.248,18.6 L306.384,33.384 L319.376,55 L308.848,55 L300.784,41 L297.312,45.928 L297.312,55 L287.68,55 L287.68,18.6 Z" id="PUNK-ROCK" fill="#ECECEC"></path>
            <path d="M340.423729,64 L463.497175,64 L463.497175,10 L340.423729,10 L340.423729,64 Z M330.423729,0 L473.497175,0 L473.497175,74 L330.423729,74 L330.423729,0 Z" id="black-hollow-rectangle" fill="#212121" fill-rule="nonzero"></path>
        </g>
    </g>
</svg>

<svg width="474" height="74" xmlns="http://www.w3.org/2000/svg" xmlns:xlink="http://www.w3.org/1999/xlink"><defs><path id="a" d="M330.424 0h143.073v74H330.424z"/><mask id="b" x="0" y="0" width="143.073" height="74" fill="#fff"><use xlink:href="#a"/></mask></defs><g fill="none" fill-rule="evenodd"><path fill="#ECECEC" d="M335.927 2.741h130.316V71.26H335.927z"/><path fill="#212121" d="M0 0h341.429v74H0zm354.716 18.6h10.752c2.762 0 5.292.336 7.588 1.008 2.296.672 4.265 1.736 5.908 3.192 1.642 1.456 2.92 3.323 3.836 5.6.914 2.277 1.372 5.021 1.372 8.232 0 3.21-.448 5.973-1.344 8.288-.896 2.315-2.156 4.219-3.78 5.712-1.624 1.493-3.547 2.595-5.768 3.304-2.222.71-4.639 1.064-7.252 1.064h-11.312V18.6zm10.192 28.672c1.306 0 2.538-.159 3.696-.476a7.048 7.048 0 0 0 2.996-1.652c.84-.784 1.502-1.867 1.988-3.248.485-1.381.728-3.136.728-5.264s-.243-3.864-.728-5.208c-.486-1.344-1.148-2.39-1.988-3.136-.84-.747-1.839-1.26-2.996-1.54-1.158-.28-2.39-.42-3.696-.42h-.56v20.944h.56zm25.76-28.672h23.52v8.064H400.3v5.712h11.872v8.064H400.3v6.496h14.448V55h-24.08V18.6zm26.544 0h10.192l3.808 15.904a88.22 88.22 0 0 1 1.344 5.74 94.862 94.862 0 0 0 1.344 5.796h.224c.522-1.979.98-3.91 1.372-5.796.392-1.885.83-3.799 1.316-5.74l3.696-15.904h9.856L439.612 55h-11.648l-10.752-36.4z"/><path d="M24.032 18.6h14.112c1.941 0 3.799.196 5.572.588 1.773.392 3.323 1.064 4.648 2.016 1.325.952 2.38 2.203 3.164 3.752.784 1.55 1.176 3.463 1.176 5.74 0 2.24-.401 4.163-1.204 5.768-.803 1.605-1.876 2.921-3.22 3.948-1.344 1.027-2.893 1.792-4.648 2.296a19.78 19.78 0 0 1-5.488.756h-4.48V55h-9.632V18.6zm13.664 17.248c1.904 0 3.313-.448 4.228-1.344.915-.896 1.372-2.165 1.372-3.808 0-1.643-.485-2.8-1.456-3.472-.97-.672-2.352-1.008-4.144-1.008h-4.032v9.632h4.032zM58.416 18.6h9.632v19.936c0 3.248.439 5.535 1.316 6.86.877 1.325 2.268 1.988 4.172 1.988s3.313-.663 4.228-1.988c.915-1.325 1.372-3.612 1.372-6.86V18.6h9.296v18.816c0 6.235-1.213 10.836-3.64 13.804s-6.179 4.452-11.256 4.452c-5.115 0-8.913-1.484-11.396-4.452-2.483-2.968-3.724-7.57-3.724-13.804V18.6zm37.856 0h9.856l8.064 16.24 3.472 8.176h.224a240.59 240.59 0 0 0-.392-3.192 98.652 98.652 0 0 1-.392-3.556 239.145 239.145 0 0 1-.308-3.64 45.68 45.68 0 0 1-.14-3.5V18.6h9.184V55h-9.856l-8.064-16.296-3.472-8.12h-.224c.224 2.09.485 4.368.784 6.832.299 2.464.448 4.816.448 7.056V55h-9.184V18.6zm37.632 0h9.632v13.552h.224l9.184-13.552h10.528l-10.864 14.784L165.6 55h-10.528l-8.064-14-3.472 4.928V55h-9.632V18.6zm56.56 16.576h3.472c3.883 0 5.824-1.605 5.824-4.816 0-1.568-.495-2.65-1.484-3.248-.99-.597-2.436-.896-4.34-.896h-3.472v8.96zM200.432 55l-6.272-12.208h-3.696V55h-9.632V18.6h13.776c1.941 0 3.799.187 5.572.56 1.773.373 3.323 1.008 4.648 1.904 1.325.896 2.38 2.1 3.164 3.612.784 1.512 1.176 3.407 1.176 5.684 0 2.613-.532 4.779-1.596 6.496a11.26 11.26 0 0 1-4.284 4.032L211.184 55h-10.752zm31.024.672c-2.539 0-4.844-.43-6.916-1.288a14.68 14.68 0 0 1-5.32-3.724c-1.475-1.624-2.623-3.621-3.444-5.992-.821-2.37-1.232-5.05-1.232-8.036 0-2.987.41-5.647 1.232-7.98.821-2.333 1.97-4.293 3.444-5.88 1.475-1.587 3.248-2.79 5.32-3.612 2.072-.821 4.377-1.232 6.916-1.232 2.501 0 4.797.41 6.888 1.232 2.09.821 3.873 2.035 5.348 3.64 1.475 1.605 2.623 3.565 3.444 5.88.821 2.315 1.232 4.965 1.232 7.952s-.41 5.665-1.232 8.036c-.821 2.37-1.97 4.368-3.444 5.992-1.475 1.624-3.257 2.865-5.348 3.724-2.09.859-4.387 1.288-6.888 1.288zm0-8.288c2.203 0 3.93-.961 5.18-2.884 1.25-1.923 1.876-4.545 1.876-7.868 0-3.323-.625-5.89-1.876-7.7-1.25-1.81-2.977-2.716-5.18-2.716s-3.93.905-5.18 2.716c-1.25 1.81-1.876 4.377-1.876 7.7 0 3.323.625 5.945 1.876 7.868 1.25 1.923 2.977 2.884 5.18 2.884zm21.84-10.304c0-3.061.485-5.777 1.456-8.148.97-2.37 2.277-4.368 3.92-5.992a16.968 16.968 0 0 1 5.684-3.724 18.002 18.002 0 0 1 6.748-1.288c2.315 0 4.415.476 6.3 1.428 1.885.952 3.481 2.081 4.788 3.388l-5.264 5.936c-.896-.784-1.773-1.39-2.632-1.82-.859-.43-1.885-.644-3.08-.644a6.97 6.97 0 0 0-3.108.728 7.62 7.62 0 0 0-2.576 2.072c-.728.896-1.307 1.997-1.736 3.304-.43 1.307-.644 2.781-.644 4.424 0 3.435.719 6.067 2.156 7.896 1.437 1.83 3.332 2.744 5.684 2.744 1.419 0 2.641-.27 3.668-.812a9.91 9.91 0 0 0 2.716-2.1l5.264 5.824c-1.568 1.792-3.36 3.136-5.376 4.032a15.545 15.545 0 0 1-6.384 1.344c-2.39 0-4.648-.383-6.776-1.148a15.543 15.543 0 0 1-5.6-3.472c-1.605-1.55-2.875-3.49-3.808-5.824-.933-2.333-1.4-5.05-1.4-8.148zM287.68 18.6h9.632v13.552h.224L306.72 18.6h10.528l-10.864 14.784L319.376 55h-10.528l-8.064-14-3.472 4.928V55h-9.632V18.6z" fill="#ECECEC"/><use stroke="#212121" mask="url(#b)" stroke-width="20" xlink:href="#a"/></g></svg>
